src/assets/icons/cloud.svg

<svg width="14" height="14" viewBox="0 0 14 14" fill="none" xmlns="http://www.w3.org/2000/svg">
<g id="cloud">
<path id="Vector" fill-rule="evenodd" clip-rule="evenodd" d="M0 7.00001C0 4.18169 2.28978 1.89191 5.10811 1.89191C7.20831 1.89191 9.01395 3.15898 9.79844 4.97642C9.99081 4.94059 10.1931 4.91893 10.4054 4.91893C11.3468 4.91893 12.2406 5.38389 12.8878 6.03112C13.535 6.67834 14 7.57218 14 8.51353C14 10.4994 12.3913 12.1081 10.4054 12.1081H5.10811C2.28978 12.1081 0 9.81834 0 7.00001ZM5.10811 3.02704C2.9167 3.02704 1.13514 4.80861 1.13514 7.00001C1.13514 9.19142 2.9167 10.973 5.10811 10.973H10.4054C11.7644 10.973 12.8649 9.8725 12.8649 8.51353C12.8649 7.94136 12.5731 7.32169 12.0852 6.83378C11.5972 6.34587 10.9776 6.05407 10.4054 6.05407C10.1416 6.05407 9.88487 6.1066 9.61976 6.19276C9.47534 6.2397 9.31814 6.22681 9.18331 6.15697C9.04847 6.08713 8.94724 5.96618 8.90225 5.82115C8.39881 4.19821 6.88846 3.02704 5.10811 3.02704Z" fill="black"/>
</g>
</svg>

<svg xmlns="http://www.w3.org/2000/svg" fill="none" viewBox="0 0 14 14"><path fill="#000" fill-rule="evenodd" d="M0 7a5.11 5.11 0 0 1 5.108-5.108c2.1 0 3.906 1.267 4.69 3.084.193-.035.395-.057.607-.057.942 0 1.836.465 2.483 1.112S14 7.572 14 8.514a3.594 3.594 0 0 1-3.595 3.594H5.108A5.11 5.11 0 0 1 0 7m5.108-3.973A3.977 3.977 0 0 0 1.135 7a3.977 3.977 0 0 0 3.973 3.973h5.297c1.36 0 2.46-1.1 2.46-2.46 0-.572-.292-1.191-.78-1.68-.488-.487-1.107-.779-1.68-.779-.263 0-.52.053-.785.139a.57.57 0 0 1-.718-.372 3.97 3.97 0 0 0-3.794-2.794" clip-rule="evenodd"/></svg>
